assets/icons/bookmark-outline.svg

<svg width="24" height="24" viewBox="0 0 24 24" fill="none" xmlns="http://www.w3.org/2000/svg">
    <path d="M6.09002 21.06C5.8248 21.06 5.57045 20.9546 5.38291 20.7671C5.19538 20.5796 5.09002 20.3252 5.09002 20.06L4.94002 5.4C4.92798 5.10234 4.9749 4.80525 5.07809 4.52579C5.18128 4.24633 5.33871 3.99004 5.5413 3.77164C5.7439 3.55324 5.98768 3.37705 6.25862 3.25321C6.52955 3.12936 6.8223 3.0603 7.12002 3.05L16.71 3C17.0081 3.00521 17.3023 3.06909 17.5757 3.18801C17.8491 3.30692 18.0965 3.47854 18.3035 3.69305C18.5106 3.90756 18.6734 4.16077 18.7826 4.43821C18.8918 4.71565 18.9453 5.01189 18.94 5.31L19.08 19.97C19.0817 20.1452 19.0374 20.3178 18.9514 20.4705C18.8654 20.6232 18.7408 20.7506 18.59 20.84C18.438 20.9278 18.2656 20.974 18.09 20.974C17.9145 20.974 17.742 20.9278 17.59 20.84L11.89 17.68L6.60002 20.91C6.44337 20.9975 6.26909 21.0488 6.09002 21.06ZM11.85 15.51C12.0238 15.5103 12.195 15.5514 12.35 15.63L17.06 18.24L16.94 5.29C16.94 5.09 16.81 4.95 16.73 4.96L7.13002 5.05C7.05002 5.05 6.94002 5.18 6.94002 5.38L7.06002 18.28L11.34 15.65C11.4955 15.561 11.6709 15.5128 11.85 15.51Z"
          fill="black"/>
</svg>

<svg width="24" height="24" fill="none" xmlns="http://www.w3.org/2000/svg"><path d="M6.09 21.06a1 1 0 0 1-1-1L4.94 5.4a2.26 2.26 0 0 1 2.18-2.35L16.71 3a2.27 2.27 0 0 1 2.23 2.31l.14 14.66a1 1 0 0 1-.49.87 1 1 0 0 1-1 0l-5.7-3.16-5.29 3.23a1.2 1.2 0 0 1-.51.15Zm5.76-5.55c.174 0 .345.041.5.12l4.71 2.61-.12-12.95c0-.2-.13-.34-.21-.33l-9.6.09c-.08 0-.19.13-.19.33l.12 12.9 4.28-2.63a1.06 1.06 0 0 1 .51-.14Z" fill="#000"/></svg>
